src/assets/svg/investment-7.svg

<svg width="34" height="34" viewBox="0 0 34 34" fill="none" xmlns="http://www.w3.org/2000/svg">
<path d="M7.28577 9.71429H17.0001V12.1429H7.28577V9.71429ZM7.28577 4.85714H21.8572V7.28571H7.28577V4.85714ZM7.28577 0H21.8572V2.42857H7.28577V0Z" fill="#00C700"/>
<path d="M3.29193 31.5714L10.1296 19.4334L19.1566 27.3141C19.4294 27.557 19.7536 27.7351 20.1048 27.8353C20.4561 27.9355 20.8254 27.9552 21.1853 27.8928C21.5452 27.8305 21.8865 27.6878 22.1836 27.4753C22.4807 27.2629 22.7261 26.9861 22.9014 26.6657L31.365 14.0335L29.3481 12.6808L20.8481 25.3676L20.7631 25.4927L11.7349 17.612C11.4621 17.3706 11.1385 17.1935 10.7881 17.0939C10.4377 16.9942 10.0694 16.9746 9.71043 17.0363C9.35142 17.0981 9.01087 17.2398 8.71393 17.4508C8.417 17.6618 8.17126 17.9368 7.99486 18.2556L2.42857 28.1508V0H0V31.5714C0 32.2155 0.255866 32.8332 0.711312 33.2887C1.16676 33.7441 1.78447 34 2.42857 34H34V31.5714H3.29193Z" fill="#00C700"/>
</svg>

<svg xmlns="http://www.w3.org/2000/svg" width="34" height="34" fill="none"><path fill="#00C700" d="M7.286 9.714H17v2.429H7.286zm0-4.857h14.571v2.429H7.286zm0-4.857h14.571v2.429H7.286z"/><path fill="#00C700" d="m3.292 31.571 6.838-12.138 9.027 7.881a2.427 2.427 0 0 0 3.744-.648l8.464-12.632-2.017-1.353-8.5 12.687-.085.125-9.028-7.881a2.432 2.432 0 0 0-3.74.644L2.429 28.15V0H0v31.571A2.43 2.43 0 0 0 2.429 34H34v-2.429z"/></svg>
